X:1
T:Man from Newry, The
L:1/8
M:2/2
I:linebreak $
K:G
V:1 treble 
V:1
 D2 | G2 g2 gdBG | c2 e2 efge | dBdg edcB | ABcA GFED | G2 g2 gdBG | c2 e2 efge |$ dBdg ecAF | %8
 G2 B2 G2 :: dc | BGBG BcdB | ecec efge | dBdg edcB |$ ABcA GFED | BGBG BcdB | ecec efge | %16
 dBdg ecAF | G2 B2 B2 :| %18
